X: 1755
T: Always Welcome   #2
R: hornpipe, reel
%S: s:3 b:16(4+6+6)
B: O'Neill's 1850 #1755
O: Cronin
Z: Bob Safranek, rjs@gsp.org
Z: Compacted via repeats and multiple endings [JC]
M: 2/4
L: 1/16
K: A
(AF) |: E2EF A2AB | cBAB ceeg | fefg agaf | ecBc [1,3 AFFA :|[2,4 A2 :|
|: c2 |: A2Ac eccf | ecac ecc [1,3 d | B2Bd fefg | agaf edcB :|[2,4 e | fefg agaf | ecBc A2 :|
|: e2 |: a2ga faea | faea fcc [1,3 B | E2EF AGAB | cBAc BFFe :|[2,4 e | fefg agaf | ecBc A2 :|
